icon/pk/digital-watches.svg

<svg viewBox="0 0 48 48" fill="none" xmlns="http://www.w3.org/2000/svg" height="1em" width="1em">
  <rect x="13" y="13" width="22" height="22" rx="3" fill="#2F88FF" stroke="black" stroke-width="4"/>
  <path d="M29 35V42C29 43.1046 28.1046 44 27 44H21C19.8954 44 19 43.1046 19 42V35" stroke="black" stroke-width="4" stroke-linecap="round" stroke-linejoin="round"/>
  <path d="M19 13V6C19 4.89543 19.8954 4 21 4H27C28.1046 4 29 4.89543 29 6V13" stroke="black" stroke-width="4" stroke-linecap="round" stroke-linejoin="round"/>
  <path d="M35 21H37" stroke="black" stroke-width="4" stroke-linecap="round" stroke-linejoin="round"/>
  <path d="M19 24H21" stroke="white" stroke-width="4" stroke-linecap="round" stroke-linejoin="round"/>
  <path d="M27 24H29" stroke="white" stroke-width="4" stroke-linecap="round" stroke-linejoin="round"/>
</svg>

<svg width="48" height="48" fill="none" xmlns="http://www.w3.org/2000/svg"><rect x="13" y="13" width="22" height="22" rx="3" fill="#2F88FF" stroke="#000" stroke-width="4"/><path d="M29 35v7a2 2 0 0 1-2 2h-6a2 2 0 0 1-2-2v-7M19 13V6a2 2 0 0 1 2-2h6a2 2 0 0 1 2 2v7M35 21h2" stroke="#000" stroke-width="4" stroke-linecap="round" stroke-linejoin="round"/><path d="M19 24h2M27 24h2" stroke="#fff" stroke-width="4" stroke-linecap="round" stroke-linejoin="round"/></svg>
